!!!COM: Beethoven
!!!OTL: 7 Variations on a Quartet by Winter
!!!Variation: Theme b
**function	**harm	**kern	**kern
*	*	*clefF4	*clefG2
*	*	*k[b-]	*k[b-]
*M2/4	*M2/4	*M2/4	*M2/4
*F:	*F:	*F:	*F:
4T	4I	4r	4a 4cc
=9	=9	=9	=9
2T	2I	4F 4c	8fL 8a
.	.	.	8cJ 8f
.	.	4r	8fL 8a
.	.	.	8aJ 8cc
=10	=10	=10	=10
.	.	.	q8a q8cc
4T	4V7b	(4E 4c	(4g 4b-
4T	4I	4F) 4c	4f) 4a
=11	=11	=11	=11
2T	2V	8C 8c	8eL 8g
.	.	8r	8dJ 8f
.	.	8C	8cL 8e
.	.	8r	8dJ 8f
=12	=12	=12	=12
4T	4V	4C	4e 4g
4T	4I	4r	4a 4cc
=13	=13	=13	=13
2T	2I	4F 4c	8fL 8a
.	.	.	8cJ 8f
.	.	4r	8fL 8a
.	.	.	8aJ 8cc
=14	=14	=14	=14
.	.	.	q8a q8cc
4T	4V7b	(4E 4c	(4g 4b-
4T	4I	4F) 4c	4f) 4a
=15	=15	=15	=15
4D	4Cc/V	8G	8eL 8g
.	.	8r	8eJ 8g
4D	4V/V	8GG	8fL 8a
.	.	8r	8dJ 8b
=16	=16	=16	=16
2D	2I/V	2C	4e 4cc
.	.	.	(8fL 8dd
.	.	.	8gJ) 8ee
=17	=17	=17	=17
4D	4Cc/V	8G 8e	(8ccL
.	.	8r	16ggJk)
.	.	.	16r
4D	4V/V	8G 8d	(8bL
.	.	8r	16ggJk)
.	.	.	16r
=18	=18	=18	=18
2D	2I/V	2C	4e 4cc
.	.	.	(8fL 8dd
.	.	.	8gJ) 8ee
=19	=19	=19	=19
4D	4Cc/V	8G 8e	(8ccL
.	.	8r	16ggJk)
.	.	.	16r
4D	4V/V	8G 8d	(8bL
.	.	8r	16ggJk)
.	.	.	16r
=20	=20	=20	=20
2D	2I/V	4C;	4e; 4cc;
*-	*-	*-	*-
